;FLAVOR:Marlin
;TIME:372
;Filament used: 0.177896m
;Layer height: 0.16
;MINX:204.476
;MINY:203.593
;MINZ:0.2
;MAXX:242.592
;MAXY:241.795
;MAXZ:5
;Generated with Cura_SteamEngine 5.2.1
M140 S60
M105
M190 S60
M104 S200
M105
M109 S200
M82 ;absolute extrusion mode
M201 X500.00 Y500.00 Z100.00 E5000.00 ;Setup machine max acceleration
M203 X500.00 Y500.00 Z10.00 E50.00 ;Setup machine max feedrate
M204 P500.00 R1000.00 T500.00 ;Setup Print/Retract/Travel acceleration
M205 X8.00 Y8.00 Z0.40 E5.00 ;Setup Jerk
M220 S100 ;Reset Feedrate
M221 S100 ;Reset Flowrate

G28 ;Home
G29 ;Auto bed Level

G92 E0 ;Reset Extruder
G1 Z2.0 F3000 ;Move Z Axis up
G1 X10.1 Y20 Z0.28 F5000.0 ;Move to start position
G1 X10.1 Y200.0 Z0.28 F1500.0 E15 ;Draw the first line
G1 X10.4 Y200.0 Z0.28 F5000.0 ;Move to side a little
G1 X10.4 Y20 Z0.28 F1500.0 E30 ;Draw the second line
G92 E0 ;Reset Extruder
G1 Z2.0 F3000 ;Move Z Axis up

G92 E0
G92 E0
G1 F1500 E-6.5
;LAYER_COUNT:26
;LAYER:0
M107
G0 F6000 X208.503 Y208.607 Z0.2
;TYPE:SKIRT
G1 F1500 E0
G1 F1200 X209.171 Y207.949 E0.03119
G1 X209.591 Y207.588 E0.04961
G1 X210.007 Y207.248 E0.06748
G1 X210.758 Y206.686 E0.09867
G1 X211.449 Y206.247 E0.1259
G1 X212.269 Y205.796 E0.15703
G1 X212.535 Y205.664 E0.16691
G1 X213.608 Y205.2 E0.20579
G1 X213.881 Y205.099 E0.21547
G1 X214.915 Y204.774 E0.25152
G1 X215.198 Y204.7 E0.26125
G1 X216.458 Y204.448 E0.30399
G1 X216.83 Y204.396 E0.31648
G1 X217.94 Y204.298 E0.35354
G1 X219.314 Y204.247 E0.39927
G1 X220.149 Y204.227 E0.42705
G1 X222.686 Y204.093 E0.51155
G1 X225.174 Y203.892 E0.59457
G1 X227.267 Y203.662 E0.6646
G1 X228.003 Y203.604 E0.68916
G1 X229.144 Y203.593 E0.72711
G1 X229.475 Y203.607 E0.73813
G1 X230.409 Y203.686 E0.76931
G1 X230.962 Y203.772 E0.78792
G1 X231.45 Y203.86 E0.80441
G1 X232.365 Y204.065 E0.8356
G1 X233.047 Y204.273 E0.85932
G1 X233.355 Y204.378 E0.87014
G1 X234.433 Y204.81 E0.90876
G1 X234.694 Y204.931 E0.91833
G1 X235.527 Y205.362 E0.94953
G1 X236.115 Y205.723 E0.97248
G1 X236.592 Y206.037 E0.99147
G1 X237.353 Y206.586 E1.02268
G1 X237.992 Y207.125 E1.05048
G1 X238.672 Y207.772 E1.0817
G1 X239.284 Y208.462 E1.11238
G1 X239.645 Y208.905 E1.13139
G1 X240.206 Y209.657 E1.16259
G1 X240.636 Y210.335 E1.18929
G1 X241.095 Y211.171 E1.22101
G1 X241.225 Y211.434 E1.23077
G1 X241.653 Y212.417 E1.26643
G1 X241.757 Y212.692 E1.27621
G1 X242.129 Y213.873 E1.31739
G1 X242.219 Y214.227 E1.32954
G1 X242.411 Y215.145 E1.36074
G1 X242.528 Y216.131 E1.39376
G1 X242.57 Y216.703 E1.41284
G1 X242.592 Y217.938 E1.45392
G1 X242.556 Y218.861 E1.48464
G1 X242.499 Y219.954 E1.52104
G1 X242.437 Y222.489 E1.60538
G1 X242.446 Y225.014 E1.68937
G1 X242.496 Y226.807 E1.74902
G1 X242.523 Y227.514 E1.77256
G1 X242.516 Y228.5 E1.80535
G1 X242.501 Y228.79 E1.81501
G1 X242.396 Y229.841 E1.85014
G1 X242.353 Y230.13 E1.85986
G1 X242.104 Y231.336 E1.90082
G1 X242.028 Y231.622 E1.91066
G1 X241.716 Y232.607 E1.94502
G1 X241.62 Y232.867 E1.95424
G1 X241.184 Y233.887 E1.99114
G1 X241.054 Y234.153 E2.00098
G1 X240.517 Y235.124 E2.03789
G1 X240.337 Y235.414 E2.04924
G1 X239.809 Y236.189 E2.08043
G1 X239.157 Y236.983 E2.1146
G1 X238.768 Y237.414 E2.13391
G1 X238.11 Y238.083 E2.16512
G1 X237.501 Y238.616 E2.19204
G1 X236.66 Y239.258 E2.22723
G1 X236.434 Y239.414 E2.23637
G1 X235.508 Y239.987 E2.27258
G1 X235.244 Y240.133 E2.28262
G1 X234.25 Y240.619 E2.31942
G1 X233.944 Y240.75 E2.33049
G1 X233.067 Y241.082 E2.36168
G1 X232.576 Y241.232 E2.37876
G1 X232.161 Y241.348 E2.39309
G1 X231.248 Y241.562 E2.42428
G1 X230.313 Y241.698 E2.4557
G1 X229.91 Y241.739 E2.46918
G1 X228.755 Y241.795 E2.50764
G1 X228.49 Y241.794 E2.51645
G1 X227.757 Y241.767 E2.54085
G1 X227.214 Y241.729 E2.55895
G1 X224.671 Y241.585 E2.64367
G1 X222.175 Y241.513 E2.72672
G1 X219.591 Y241.513 E2.81266
G1 X218.769 Y241.531 E2.84001
G1 X217.956 Y241.527 E2.86705
G1 X217.02 Y241.473 E2.89823
G1 X216.151 Y241.351 E2.92742
G1 X215.595 Y241.25 E2.94622
G1 X214.68 Y241.043 E2.97742
G1 X213.511 Y240.654 E3.01839
G1 X212.963 Y240.437 E3.038
G1 X212.107 Y240.055 E3.06918
G1 X211.405 Y239.676 E3.09571
G1 X210.5 Y239.106 E3.13128
G1 X210.263 Y238.94 E3.14091
G1 X209.419 Y238.285 E3.17644
G1 X209.21 Y238.106 E3.18559
G1 X208.421 Y237.36 E3.22171
G1 X208.217 Y237.147 E3.23152
G1 X207.403 Y236.193 E3.27323
G1 X207.21 Y235.939 E3.28384
G1 X206.64 Y235.114 E3.31719
G1 X206.505 Y234.898 E3.32566
G1 X205.974 Y233.946 E3.36192
G1 X205.832 Y233.659 E3.37257
G1 X205.353 Y232.54 E3.41305
G1 X205.261 Y232.287 E3.42201
G1 X204.959 Y231.32 E3.4557
G1 X204.885 Y231.038 E3.4654
G1 X204.653 Y229.921 E3.50334
G1 X204.6 Y229.577 E3.51492
G1 X204.497 Y228.645 E3.54611
G1 X204.476 Y227.614 E3.5804
G1 X204.493 Y226.965 E3.602
G1 X204.668 Y223.401 E3.72068
G1 X204.717 Y220.88 E3.80454
G1 X204.694 Y218.29 E3.89069
G1 X204.701 Y217.839 E3.90569
G1 X204.755 Y216.912 E3.93658
G1 X204.786 Y216.603 E3.94691
G1 X204.953 Y215.503 E3.98391
G1 X205.005 Y215.248 E3.99257
G1 X205.278 Y214.184 E4.0291
G1 X205.387 Y213.833 E4.04133
G1 X205.703 Y212.95 E4.07252
G1 X206.156 Y211.975 E4.10828
G1 X206.43 Y211.454 E4.12786
G1 X206.902 Y210.643 E4.15907
G1 X207.362 Y209.979 E4.18593
G1 X207.571 Y209.7 E4.19753
G1 X208.326 Y208.797 E4.23668
G1 X208.503 Y208.607 E4.24531
G0 F6000 X208.796 Y208.88
G1 F1200 X209.452 Y208.234 E4.27593
G1 X209.844 Y207.898 E4.29311
G1 X210.26 Y207.558 E4.31098
G1 X210.997 Y207.006 E4.3416
G1 X211.657 Y206.589 E4.36757
G1 X212.447 Y206.154 E4.39756
G1 X212.713 Y206.022 E4.40744
G1 X213.747 Y205.576 E4.44489
G1 X214.02 Y205.475 E4.45458
G1 X215.016 Y205.161 E4.48931
G1 X215.299 Y205.087 E4.49904
G1 X216.514 Y204.844 E4.54025
G1 X216.886 Y204.792 E4.55274
G1 X217.955 Y204.697 E4.58844
G1 X219.18 Y204.651 E4.62921
G1 X220.18 Y204.626 E4.66248
G1 X222.667 Y204.495 E4.74531
G1 X225.217 Y204.289 E4.8304
G1 X227.311 Y204.059 E4.90047
G1 X228.027 Y204.003 E4.92436
G1 X229.127 Y203.992 E4.96094
G1 X229.458 Y204.006 E4.97196
G1 X230.375 Y204.085 E5.00258
G1 X230.891 Y204.165 E5.01994
G1 X231.379 Y204.253 E5.03644
G1 X232.277 Y204.456 E5.06706
G1 X232.918 Y204.652 E5.08935
G1 X233.226 Y204.757 E5.10017
G1 X234.264 Y205.173 E5.13737
G1 X234.525 Y205.294 E5.14694
G1 X235.343 Y205.717 E5.17757
G1 X235.895 Y206.057 E5.19913
G1 X236.372 Y206.371 E5.21812
G1 X237.119 Y206.91 E5.24876
G1 X237.729 Y207.427 E5.27536
G1 X238.396 Y208.062 E5.30599
G1 X238.974 Y208.715 E5.33499
G1 X239.335 Y209.158 E5.354
G1 X239.885 Y209.896 E5.38461
G1 X240.294 Y210.543 E5.41007
G1 X240.737 Y211.348 E5.44063
G1 X240.867 Y211.611 E5.45039
G1 X241.279 Y212.558 E5.48474
G1 X241.383 Y212.833 E5.49452
G1 X241.741 Y213.971 E5.53419
G1 X241.831 Y214.325 E5.54634
G1 X242.019 Y215.226 E5.57696
G1 X242.13 Y216.161 E5.60827
G1 X242.172 Y216.733 E5.62735
G1 X242.192 Y217.922 E5.6669
G1 X242.156 Y218.845 E5.69762
G1 X242.1 Y219.923 E5.73352
G1 X242.037 Y222.48 E5.8186
G1 X242.047 Y225.027 E5.90331
G1 X242.123 Y227.529 E5.98657
G1 X242.117 Y228.48 E6.0182
G1 X242.102 Y228.77 E6.02786
G1 X242.001 Y229.782 E6.06168
G1 X241.958 Y230.071 E6.0714
G1 X241.717 Y231.233 E6.11087
G1 X241.641 Y231.519 E6.12071
G1 X241.341 Y232.469 E6.15385
G1 X241.245 Y232.729 E6.16307
G1 X240.825 Y233.711 E6.19859
G1 X240.695 Y233.977 E6.20844
G1 X240.177 Y234.913 E6.24402
G1 X239.997 Y235.203 E6.25537
G1 X239.478 Y235.963 E6.28598
G1 X238.86 Y236.715 E6.31835
G1 X238.471 Y237.146 E6.33766
G1 X237.825 Y237.802 E6.36829
G1 X237.243 Y238.31 E6.39398
G1 X236.433 Y238.929 E6.42789
G1 X236.207 Y239.085 E6.43702
G1 X235.315 Y239.637 E6.47191
G1 X235.051 Y239.783 E6.48194
G1 X234.093 Y240.252 E6.51742
G1 X233.787 Y240.383 E6.52849
G1 X232.925 Y240.708 E6.55913
G1 X232.469 Y240.847 E6.57499
G1 X232.054 Y240.963 E6.58932
G1 X231.157 Y241.172 E6.61995
G1 X230.273 Y241.3 E6.64966
G1 X229.87 Y241.341 E6.66314
G1 X228.757 Y241.395 E6.7002
G1 X228.492 Y241.394 E6.70901
G1 X227.785 Y241.368 E6.73254
G1 X227.267 Y241.331 E6.74981
G1 X224.703 Y241.186 E6.83523
G1 X222.152 Y241.113 E6.92011
G1 X219.582 Y241.113 E7.00559
G1 X218.76 Y241.131 E7.03294
G1 X217.962 Y241.127 E7.05948
G1 X217.043 Y241.073 E7.0901
G1 X216.222 Y240.957 E7.11767
G1 X215.666 Y240.856 E7.13647
G1 X214.769 Y240.653 E7.16706
G1 X213.658 Y240.282 E7.20602
G1 X213.11 Y240.065 E7.22562
G1 X212.27 Y239.69 E7.25622
G1 X211.601 Y239.327 E7.28153
G1 X210.73 Y238.778 E7.31578
G1 X210.493 Y238.612 E7.3254
G1 X209.679 Y237.981 E7.35966
G1 X209.47 Y237.802 E7.36881
G1 X208.71 Y237.083 E7.40361
G1 X208.506 Y236.87 E7.41341
G1 X207.721 Y235.951 E7.45361
G1 X207.528 Y235.697 E7.46422
G1 X206.979 Y234.902 E7.49636
G1 X206.844 Y234.686 E7.50483
G1 X206.332 Y233.769 E7.53976
G1 X206.19 Y233.482 E7.55041
G1 X205.729 Y232.403 E7.58944
G1 X205.637 Y232.15 E7.59839
G1 X205.346 Y231.218 E7.63087
G1 X205.272 Y230.936 E7.64056
G1 X205.049 Y229.86 E7.67711
G1 X204.996 Y229.516 E7.68869
G1 X204.895 Y228.601 E7.71931
G1 X204.876 Y227.624 E7.75181
G1 X204.909 Y226.602 E7.78582
G1 X204.945 Y226.018 E7.80528
G1 X205.068 Y223.428 E7.89152
G1 X205.117 Y220.884 E7.97615
G1 X205.094 Y218.296 E8.06223
G1 X205.101 Y217.845 E8.07723
G1 X205.153 Y216.952 E8.10698
G1 X205.184 Y216.643 E8.11731
G1 X205.345 Y215.583 E8.15297
G1 X205.397 Y215.328 E8.16163
G1 X205.66 Y214.302 E8.19686
G1 X205.769 Y213.951 E8.20908
G1 X206.08 Y213.085 E8.23968
G1 X206.51 Y212.161 E8.27358
G1 X206.784 Y211.64 E8.29316
G1 X207.248 Y210.845 E8.32378
G1 X207.682 Y210.219 E8.34911
G1 X207.891 Y209.94 E8.36071
G1 X208.619 Y209.07 E8.39844
G1 X208.796 Y208.88 E8.40707
G0 F6000 X209.089 Y209.152
G1 F1200 X209.733 Y208.519 E8.43711
G1 X210.097 Y208.207 E8.45305
G1 X210.513 Y207.867 E8.47092
G1 X211.237 Y207.327 E8.50096
G1 X211.864 Y206.931 E8.52563
G1 X212.625 Y206.512 E8.55452
G1 X212.891 Y206.38 E8.5644
G1 X213.886 Y205.951 E8.60044
G1 X214.159 Y205.85 E8.61012
G1 X215.118 Y205.548 E8.64356
G1 X215.401 Y205.474 E8.65329
G1 X216.569 Y205.24 E8.69291
G1 X216.941 Y205.188 E8.7054
G1 X217.97 Y205.097 E8.73976
G1 X219.195 Y205.051 E8.78053
G1 X220.176 Y205.027 E8.81317
G1 X222.72 Y204.892 E8.8979
G1 X225.257 Y204.687 E8.98256
G1 X227.354 Y204.457 E9.05272
G1 X228.052 Y204.402 E9.07601
G1 X229.11 Y204.392 E9.1112
G1 X229.441 Y204.406 E9.12222
G1 X230.341 Y204.484 E9.15227
G1 X230.82 Y204.559 E9.16839
G1 X231.308 Y204.647 E9.18489
G1 X232.189 Y204.846 E9.21493
G1 X232.789 Y205.031 E9.23581
G1 X233.097 Y205.136 E9.24663
G1 X234.096 Y205.536 E9.28242
G1 X234.357 Y205.657 E9.29199
G1 X235.159 Y206.073 E9.32204
G1 X235.675 Y206.391 E9.3422
G1 X236.152 Y206.705 E9.36119
G1 X236.884 Y207.235 E9.39125
G1 X237.466 Y207.728 E9.41662
G1 X238.119 Y208.352 E9.44666
G1 X238.664 Y208.968 E9.47402
G1 X239.025 Y209.411 E9.49303
G1 X239.564 Y210.135 E9.52305
G1 X239.952 Y210.75 E9.54723
G1 X240.378 Y211.525 E9.57665
G1 X240.508 Y211.788 E9.5864
G1 X240.905 Y212.7 E9.61949
G1 X241.009 Y212.975 E9.62927
G1 X241.354 Y214.07 E9.66745
G1 X241.444 Y214.424 E9.6796
G1 X241.627 Y215.308 E9.70962
G1 X241.731 Y216.19 E9.73916
G1 X241.773 Y216.762 E9.75824
G1 X241.792 Y217.907 E9.79633
G1 X241.75 Y218.967 E9.83161
G1 X241.7 Y219.928 E9.86362
G1 X241.637 Y222.472 E9.94826
G1 X241.647 Y225.04 E10.03367
G1 X241.694 Y226.755 E10.09073
G1 X241.724 Y227.544 E10.11699
G1 X241.717 Y228.459 E10.14743
G1 X241.702 Y228.749 E10.15708
G1 X241.605 Y229.723 E10.18964
G1 X241.562 Y230.012 E10.19936
G1 X241.331 Y231.131 E10.23736
G1 X241.255 Y231.417 E10.2472
G1 X240.966 Y232.33 E10.27906
G1 X240.87 Y232.59 E10.28827
G1 X240.465 Y233.536 E10.3225
G1 X240.335 Y233.802 E10.33235
G1 X239.837 Y234.702 E10.36656
G1 X239.657 Y234.992 E10.37791
G1 X239.148 Y235.738 E10.40795
G1 X238.563 Y236.447 E10.43852
G1 X238.174 Y236.878 E10.45783
G1 X237.54 Y237.521 E10.48786
G1 X236.985 Y238.004 E10.51234
G1 X236.205 Y238.599 E10.54496
G1 X235.979 Y238.755 E10.5541
G1 X235.121 Y239.287 E10.58768
G1 X234.857 Y239.433 E10.59771
G1 X233.935 Y239.884 E10.63185
G1 X233.629 Y240.015 E10.64292
G1 X232.361 Y240.461 E10.68763
G1 X231.946 Y240.577 E10.70196
G1 X231.066 Y240.782 E10.73201
G1 X230.232 Y240.902 E10.76003
G1 X229.829 Y240.943 E10.77351
G1 X228.759 Y240.995 E10.80914
G1 X228.494 Y240.994 E10.81795
G1 X227.813 Y240.969 E10.84062
G1 X227.315 Y240.934 E10.85722
G1 X224.703 Y240.786 E10.94424
G1 X222.163 Y240.713 E11.02875
G1 X219.619 Y240.713 E11.11337
G1 X218.751 Y240.732 E11.14224
G1 X217.968 Y240.727 E11.16829
G1 X217.067 Y240.674 E11.19831
G1 X216.294 Y240.564 E11.22427
G1 X215.738 Y240.463 E11.24307
G1 X214.857 Y240.262 E11.27312
G1 X213.806 Y239.911 E11.30998
G1 X213.258 Y239.694 E11.32958
G1 X212.434 Y239.324 E11.35963
G1 X211.798 Y238.979 E11.38369
G1 X210.959 Y238.451 E11.41666
G1 X210.722 Y238.285 E11.42629
G1 X209.939 Y237.677 E11.45926
G1 X209.73 Y237.498 E11.46841
G1 X208.999 Y236.806 E11.50189
G1 X208.795 Y236.593 E11.5117
G1 X208.04 Y235.709 E11.55036
G1 X207.847 Y235.455 E11.56098
G1 X207.318 Y234.69 E11.59191
G1 X207.183 Y234.474 E11.60038
G1 X206.691 Y233.591 E11.634
G1 X206.549 Y233.304 E11.64465
G1 X206.105 Y232.267 E11.68217
G1 X206.013 Y232.014 E11.69113
G1 X205.733 Y231.117 E11.72238
G1 X205.659 Y230.835 E11.73208
G1 X205.444 Y229.799 E11.76727
G1 X205.391 Y229.455 E11.77884
G1 X205.293 Y228.557 E11.80889
G1 X205.275 Y227.635 E11.83956
G1 X205.292 Y226.986 E11.86115
G1 X205.343 Y226.059 E11.89203
G1 X205.468 Y223.419 E11.97994
G1 X205.517 Y220.887 E12.06417
G1 X205.494 Y218.303 E12.15012
G1 X205.501 Y217.852 E12.16512
G1 X205.551 Y216.992 E12.19377
G1 X205.582 Y216.683 E12.2041
G1 X205.737 Y215.663 E12.23841
G1 X205.789 Y215.408 E12.24707
G1 X206.042 Y214.421 E12.28096
G1 X206.151 Y214.07 E12.29318
G1 X206.457 Y213.22 E12.32323
G1 X206.864 Y212.347 E12.35527
G1 X207.138 Y211.826 E12.37485
G1 X207.594 Y211.046 E12.4049
G1 X208.002 Y210.459 E12.42867
G1 X208.211 Y210.18 E12.44027
G1 X208.912 Y209.342 E12.47661
G1 X209.089 Y209.152 E12.48524
G1 F1500 E5.98524
;MESH:Spacer.stl(3)
G0 F6000 X215.797 Y215.938
G0 X217.982 Y220.021
;TYPE:WALL-INNER
G1 F1500 E12.48524
G1 F1371.4 X217.475 Y219.77 E12.50171
G1 X217.062 Y219.408 E12.51769
G1 F1375.4 X216.779 Y218.946 E12.53341
G1 X216.667 Y218.611 E12.54366
G1 X216.615 Y218.171 E12.55652
G1 X216.615 Y218.049 E12.56006
G1 F1379.3 X216.645 Y217.779 E12.56792
G1 X216.822 Y217.244 E12.58423
G1 F1375.4 X217.167 Y216.772 E12.60119
G1 F1371.4 X217.591 Y216.448 E12.61672
G1 F1375.4 X218.115 Y216.243 E12.63305
G1 F1379.3 X218.7 Y216.193 E12.65004
G1 F1387.3 X219.249 Y216.322 E12.66627
G1 F1383.3 X219.491 Y216.43 E12.67391
G1 F1379.3 X219.933 Y216.751 E12.68972
G1 X220.169 Y217.04 E12.70052
G1 X220.398 Y217.483 E12.71495
G1 X220.485 Y217.811 E12.72477
G1 F1383.3 X220.507 Y218.318 E12.73941
G1 X220.441 Y218.673 E12.74983
G1 F1387.3 X220.246 Y219.132 E12.76417
G1 F1383.3 X220.048 Y219.416 E12.77416
G1 X219.643 Y219.779 E12.78986
G1 F1379.3 X219.107 Y220.028 E12.80696
G1 F1371.4 X218.569 Y220.101 E12.82276
G1 F1367.5 X217.982 Y220.021 E12.84005
G0 F6000 X218.109 Y219.657
;TYPE:WALL-OUTER
G1 F1200 X217.696 Y219.463 E12.85522
G1 X217.351 Y219.159 E12.87052
G1 X217.124 Y218.79 E12.88493
G1 X217.034 Y218.534 E12.89395
G1 X216.988 Y218.13 E12.90748
G1 X217.009 Y217.857 E12.91658
G1 X217.162 Y217.421 E12.93195
G1 X217.421 Y217.058 E12.94678
G1 X217.798 Y216.769 E12.96258
G1 X218.205 Y216.613 E12.97708
G1 X218.694 Y216.577 E12.99339
G1 X219.121 Y216.674 E13.00795
G1 X219.344 Y216.779 E13.01615
G1 X219.682 Y217.039 E13.03033
G1 X219.843 Y217.23 E13.03864
G1 X220.045 Y217.619 E13.05322
G1 X220.11 Y217.854 E13.06133
G1 X220.128 Y218.316 E13.07671
G1 X220.084 Y218.559 E13.08492
G1 X219.918 Y218.951 E13.09908
G1 X219.769 Y219.159 E13.10759
G1 X219.434 Y219.46 E13.12257
G1 X219.026 Y219.654 E13.1376
G1 X218.58 Y219.722 E13.1526
G1 X218.109 Y219.657 E13.16842
G0 F6000 X217.982 Y219.928
G0 X218.909 Y220.425
;TYPE:WALL-INNER
G1 F1375.4 X219.273 Y220.331 E13.17933
G1 F1387.3 X219.801 Y220.099 E13.19592
G1 F1375.4 X220.233 Y219.721 E13.21258
G1 F1367.5 X220.517 Y219.355 E13.2261
G1 F1371.4 X220.777 Y218.816 E13.24351
G1 F1367.5 X220.857 Y218.253 E13.26011
G1 F1363.6 X220.834 Y217.798 E13.27344
G1 F1367.5 X220.717 Y217.346 E13.28707
