;FLAVOR:Marlin
;TIME:4190
;Filament used: 2.40746m
;Layer height: 0.16
;MINX:179.25
;MINY:195
;MINZ:0.2
;MAXX:270.75
;MAXY:255
;MAXZ:9.84
;Generated with Cura_SteamEngine 5.2.1
M140 S60
M105
M190 S60
M104 S200
M105
M109 S200
M82 ;absolute extrusion mode
M201 X500.00 Y500.00 Z100.00 E5000.00 ;Setup machine max acceleration
M203 X500.00 Y500.00 Z10.00 E50.00 ;Setup machine max feedrate
M204 P500.00 R1000.00 T500.00 ;Setup Print/Retract/Travel acceleration
M205 X8.00 Y8.00 Z0.40 E5.00 ;Setup Jerk
M220 S100 ;Reset Feedrate
M221 S100 ;Reset Flowrate

G28 ;Home
G29 ;Auto bed Level

G92 E0 ;Reset Extruder
G1 Z2.0 F3000 ;Move Z Axis up
G1 X10.1 Y20 Z0.28 F5000.0 ;Move to start position
G1 X10.1 Y200.0 Z0.28 F1500.0 E15 ;Draw the first line
G1 X10.4 Y200.0 Z0.28 F5000.0 ;Move to side a little
G1 X10.4 Y20 Z0.28 F1500.0 E30 ;Draw the second line
G92 E0 ;Reset Extruder
G1 Z2.0 F3000 ;Move Z Axis up

G92 E0
G92 E0
G1 F1500 E-6.5
;LAYER_COUNT:52
;LAYER:0
M107
G0 F6000 X183.241 Y198.655 Z0.2
;TYPE:SKIRT
G1 F1500 E0
G1 F1200 X183.931 Y198.019 E0.03121
G1 X184.672 Y197.445 E0.06239
G1 X185.364 Y196.993 E0.08988
G1 X185.72 Y196.779 E0.10369
G1 X186.543 Y196.331 E0.13486
G1 X187.76 Y195.822 E0.17873
G1 X188.178 Y195.676 E0.19346
G1 X189.076 Y195.405 E0.22466
G1 X189.993 Y195.211 E0.25583
G1 X190.593 Y195.128 E0.27598
G1 X191.062 Y195.076 E0.29167
G1 X192.13 Y195.01 E0.32726
G1 X192.96 Y195 E0.35487
G1 X224.427 Y195.002 E1.40147
G1 X225.385 Y195.02 E1.43334
G1 X225.848 Y195.04 E1.44875
G1 X226.466 Y195.082 E1.46935
G1 X227.388 Y195.192 E1.50024
G1 X227.928 Y195.28 E1.51843
G1 X228.501 Y195.387 E1.53782
G1 X229.305 Y195.576 E1.56529
G1 X231.256 Y196.112 E1.63259
G1 X233.705 Y196.715 E1.71647
G1 X236.193 Y197.252 E1.80113
G1 X238.655 Y197.711 E1.88443
G1 X241.116 Y198.099 E1.96729
G1 X243.634 Y198.424 E2.05173
G1 X246.148 Y198.675 E2.13577
G1 X248.644 Y198.854 E2.219
G1 X251.162 Y198.962 E2.30282
G1 X253.833 Y199.001 E2.39167
G1 X257.214 Y199.002 E2.50412
G1 X257.912 Y199.012 E2.52734
G1 X258.963 Y199.078 E2.56237
G1 X259.388 Y199.125 E2.57659
G1 X260.315 Y199.267 E2.60778
G1 X261.226 Y199.489 E2.63897
G1 X261.776 Y199.663 E2.65815
G1 X262.221 Y199.817 E2.67381
G1 X263.094 Y200.161 E2.70502
G1 X263.934 Y200.578 E2.73622
G1 X264.513 Y200.921 E2.7586
G1 X264.879 Y201.153 E2.77301
G1 X265.649 Y201.689 E2.80422
G1 X266.371 Y202.288 E2.83542
G1 X266.731 Y202.628 E2.85189
G1 X267.043 Y202.937 E2.86649
G1 X267.68 Y203.625 E2.89768
G1 X268.257 Y204.365 E2.92889
G1 X268.612 Y204.895 E2.9501
G1 X268.853 Y205.278 E2.96516
G1 X269.318 Y206.092 E2.99634
G1 X269.713 Y206.943 E3.02754
G1 X269.928 Y207.51 E3.04771
G1 X270.075 Y207.931 E3.06254
G1 X270.346 Y208.829 E3.09374
G1 X270.54 Y209.746 E3.12491
G1 X270.62 Y210.318 E3.14412
G1 X270.67 Y210.759 E3.15888
G1 X270.739 Y211.844 E3.19504
G1 X270.75 Y212.711 E3.22388
G1 X270.748 Y237.483 E4.0478
G1 X270.736 Y238.219 E4.07229
G1 X270.664 Y239.304 E4.10845
G1 X270.619 Y239.693 E4.12148
G1 X270.472 Y240.619 E4.15266
G1 X270.185 Y241.728 E4.19076
G1 X269.954 Y242.422 E4.21509
G1 X269.862 Y242.672 E4.22395
G1 X269.501 Y243.537 E4.25513
G1 X268.829 Y244.764 E4.30166
G1 X268.595 Y245.133 E4.31619
G1 X268.059 Y245.903 E4.34739
G1 X267.46 Y246.624 E4.37857
G1 X267.095 Y247.009 E4.39621
G1 X266.759 Y247.346 E4.41204
G1 X266.069 Y247.981 E4.44323
G1 X265.327 Y248.555 E4.47443
G1 X264.636 Y249.007 E4.5019
G1 X264.28 Y249.221 E4.51571
G1 X263.457 Y249.669 E4.54688
G1 X262.24 Y250.178 E4.59075
G1 X261.822 Y250.324 E4.60548
G1 X260.924 Y250.595 E4.63668
G1 X260.007 Y250.789 E4.66785
G1 X259.407 Y250.872 E4.688
G1 X258.938 Y250.924 E4.70369
G1 X257.87 Y250.99 E4.73928
G1 X257.04 Y251 E4.76689
G1 X253.86 Y251 E4.87266
G1 X251.252 Y251.037 E4.95941
G1 X248.73 Y251.144 E5.04336
G1 X246.235 Y251.321 E5.12656
G1 X243.737 Y251.569 E5.21005
G1 X241.248 Y251.887 E5.29351
G1 X238.739 Y252.281 E5.37798
G1 X236.244 Y252.745 E5.46239
G1 X233.836 Y253.262 E5.5443
G1 X231.39 Y253.863 E5.62808
G1 X230.564 Y254.092 E5.65659
G1 X229.314 Y254.423 E5.69959
G1 X228.603 Y254.586 E5.72385
G1 X227.849 Y254.733 E5.74941
G1 X226.611 Y254.902 E5.79096
G1 X226.042 Y254.947 E5.80995
G1 X225.384 Y254.979 E5.83186
G1 X224.175 Y255 E5.87208
G1 X192.79 Y254.998 E6.91594
G1 X192.09 Y254.988 E6.93923
G1 X191.041 Y254.923 E6.97419
G1 X190.615 Y254.876 E6.98844
G1 X189.688 Y254.733 E7.01964
G1 X188.503 Y254.43 E7.06032
G1 X187.794 Y254.191 E7.0852
G1 X187.541 Y254.097 E7.09418
G1 X186.676 Y253.733 E7.12539
G1 X185.491 Y253.082 E7.17036
G1 X185.129 Y252.853 E7.18461
G1 X184.359 Y252.318 E7.2158
G1 X183.637 Y251.72 E7.24698
G1 X183.243 Y251.347 E7.26502
G1 X182.902 Y251.007 E7.28104
G1 X182.267 Y250.317 E7.31223
G1 X181.693 Y249.575 E7.34343
G1 X181.232 Y248.869 E7.37147
G1 X181.02 Y248.515 E7.3852
G1 X180.573 Y247.69 E7.41641
G1 X180.075 Y246.497 E7.4594
G1 X179.928 Y246.077 E7.4742
G1 X179.656 Y245.179 E7.50541
G1 X179.461 Y244.262 E7.53659
G1 X179.375 Y243.64 E7.55748
G1 X179.324 Y243.174 E7.57307
G1 X179.26 Y242.121 E7.60816
G1 X179.25 Y241.291 E7.63576
G1 X179.252 Y208.54 E8.72507
G1 X179.262 Y207.836 E8.74848
G1 X179.329 Y206.772 E8.78394
G1 X179.376 Y206.351 E8.79803
G1 X179.52 Y205.424 E8.82924
G1 X179.82 Y204.253 E8.86944
G1 X180.064 Y203.531 E8.89479
G1 X180.158 Y203.279 E8.90373
G1 X180.523 Y202.415 E8.93493
G1 X181.19 Y201.208 E8.9808
G1 X181.426 Y200.838 E8.99539
G1 X181.964 Y200.069 E9.02661
G1 X182.565 Y199.349 E9.0578
G1 X182.91 Y198.987 E9.07443
G1 X183.241 Y198.655 E9.09003
G0 F6000 X183.524 Y198.937
G1 F1200 X184.202 Y198.314 E9.12065
G1 X184.931 Y197.752 E9.15127
G1 X185.57 Y197.336 E9.17663
G1 X185.926 Y197.122 E9.19044
G1 X186.735 Y196.682 E9.22107
G1 X187.892 Y196.2 E9.26276
G1 X188.31 Y196.054 E9.27749
G1 X189.191 Y195.788 E9.3081
G1 X190.092 Y195.6 E9.33871
G1 X190.637 Y195.526 E9.357
G1 X191.106 Y195.474 E9.3727
G1 X192.135 Y195.41 E9.40699
G1 X192.96 Y195.4 E9.43443
G1 X224.422 Y195.402 E10.48086
G1 X225.06 Y195.411 E10.50208
G1 X225.83 Y195.44 E10.52771
G1 X226.435 Y195.48 E10.54788
G1 X227.324 Y195.587 E10.57766
G1 X227.864 Y195.675 E10.59585
G1 X228.424 Y195.779 E10.6148
G1 X229.199 Y195.961 E10.64128
G1 X231.168 Y196.503 E10.7092
G1 X233.622 Y197.106 E10.79325
G1 X236.114 Y197.644 E10.87804
G1 X238.585 Y198.105 E10.96165
G1 X241.074 Y198.497 E11.04545
G1 X243.58 Y198.82 E11.12949
G1 X246.115 Y199.074 E11.21423
G1 X248.632 Y199.254 E11.29816
G1 X251.139 Y199.362 E11.38162
G1 X253.828 Y199.401 E11.47106
G1 X257.208 Y199.402 E11.58348
G1 X257.906 Y199.412 E11.6067
G1 X258.919 Y199.475 E11.64046
G1 X259.344 Y199.522 E11.65468
G1 X260.254 Y199.663 E11.68531
G1 X261.148 Y199.882 E11.71592
G1 X261.646 Y200.041 E11.73331
G1 X262.091 Y200.195 E11.74897
G1 X262.947 Y200.533 E11.77958
G1 X263.77 Y200.945 E11.81019
G1 X264.299 Y201.259 E11.83065
G1 X264.665 Y201.491 E11.84507
G1 X265.42 Y202.017 E11.87567
G1 X266.449 Y202.913 E11.92105
G1 X266.761 Y203.222 E11.93566
G1 X267.386 Y203.897 E11.96625
G1 X267.951 Y204.625 E11.9969
G1 X268.274 Y205.108 E12.01623
G1 X268.515 Y205.491 E12.03128
G1 X268.971 Y206.29 E12.06188
G1 X269.356 Y207.127 E12.09252
G1 X269.55 Y207.642 E12.11083
G1 X269.697 Y208.063 E12.12566
G1 X269.963 Y208.944 E12.15627
G1 X270.151 Y209.846 E12.18691
G1 X270.223 Y210.363 E12.20427
G1 X270.273 Y210.804 E12.21903
G1 X270.339 Y211.849 E12.25386
G1 X270.35 Y212.711 E12.28253
G1 X270.348 Y237.477 E13.10625
G1 X270.336 Y238.213 E13.13074
G1 X270.267 Y239.258 E13.16557
G1 X270.222 Y239.647 E13.17859
G1 X270.076 Y240.556 E13.20921
G1 X269.804 Y241.609 E13.24539
G1 X269.579 Y242.284 E13.26905
G1 X269.487 Y242.534 E13.27791
G1 X269.132 Y243.383 E13.30852
G1 X268.491 Y244.55 E13.3528
G1 X268.257 Y244.919 E13.36734
G1 X267.73 Y245.674 E13.39796
G1 X267.141 Y246.381 E13.42857
G1 X266.475 Y247.063 E13.46027
G1 X265.798 Y247.686 E13.49087
G1 X265.068 Y248.248 E13.52151
G1 X264.43 Y248.664 E13.54685
G1 X264.074 Y248.878 E13.56066
G1 X263.265 Y249.318 E13.59129
G1 X262.108 Y249.8 E13.63298
G1 X261.69 Y249.946 E13.6477
G1 X260.809 Y250.212 E13.67831
G1 X259.908 Y250.4 E13.70893
G1 X259.363 Y250.474 E13.72722
G1 X258.894 Y250.526 E13.74291
G1 X257.865 Y250.59 E13.7772
G1 X257.04 Y250.6 E13.80465
G1 X253.854 Y250.6 E13.91061
G1 X251.229 Y250.637 E13.99793
G1 X248.721 Y250.744 E14.08142
G1 X246.204 Y250.922 E14.16535
G1 X243.68 Y251.172 E14.24971
G1 X241.172 Y251.493 E14.3338
G1 X238.71 Y251.88 E14.41669
G1 X236.159 Y252.354 E14.50299
G1 X233.761 Y252.869 E14.58457
G1 X231.253 Y253.485 E14.67047
G1 X230.461 Y253.705 E14.69781
G1 X229.211 Y254.036 E14.74081
G1 X228.526 Y254.193 E14.76419
G1 X227.772 Y254.34 E14.78974
G1 X226.58 Y254.503 E14.82975
G1 X226.011 Y254.548 E14.84874
G1 X225.376 Y254.579 E14.86988
G1 X224.175 Y254.6 E14.90983
G1 X192.796 Y254.598 E15.9535
G1 X192.096 Y254.588 E15.97679
G1 X191.085 Y254.525 E16.01048
G1 X190.659 Y254.478 E16.02473
G1 X189.749 Y254.337 E16.05536
G1 X188.624 Y254.048 E16.09399
G1 X187.933 Y253.816 E16.11824
G1 X187.68 Y253.722 E16.12721
G1 X186.832 Y253.365 E16.15782
G1 X185.705 Y252.744 E16.20061
G1 X185.343 Y252.515 E16.21486
G1 X184.587 Y251.99 E16.24547
G1 X183.88 Y251.4 E16.2761
G1 X183.526 Y251.063 E16.29236
G1 X183.185 Y250.723 E16.30837
G1 X182.562 Y250.046 E16.33897
G1 X182 Y249.316 E16.36962
G1 X181.575 Y248.663 E16.39553
G1 X181.363 Y248.309 E16.40925
G1 X180.925 Y247.499 E16.43988
G1 X180.452 Y246.365 E16.48075
G1 X180.305 Y245.945 E16.49555
G1 X180.039 Y245.063 E16.52619
G1 X179.85 Y244.162 E16.55681
G1 X179.773 Y243.596 E16.57581
G1 X179.722 Y243.13 E16.5914
G1 X179.66 Y242.116 E16.62519
G1 X179.65 Y241.291 E16.65263
G1 X179.652 Y208.545 E17.74177
G1 X179.662 Y207.841 E17.76518
G1 X179.726 Y206.816 E17.79934
G1 X179.773 Y206.395 E17.81343
G1 X179.915 Y205.485 E17.84406
G1 X180.202 Y204.374 E17.88223
G1 X180.438 Y203.67 E17.90692
G1 X180.532 Y203.418 E17.91587
G1 X180.891 Y202.571 E17.94647
G1 X181.527 Y201.423 E17.99012
G1 X181.763 Y201.053 E18.00471
G1 X182.291 Y200.299 E18.03533
G1 X183.193 Y199.269 E18.08087
G1 X183.524 Y198.937 E18.09646
G0 F6000 X183.808 Y199.219
G1 F1200 X184.473 Y198.609 E18.12647
G1 X185.19 Y198.059 E18.15653
G1 X185.776 Y197.679 E18.17976
G1 X186.132 Y197.465 E18.19357
G1 X186.926 Y197.034 E18.22362
G1 X188.024 Y196.577 E18.26318
G1 X188.442 Y196.431 E18.27791
G1 X189.307 Y196.172 E18.30794
G1 X190.191 Y195.989 E18.33796
G1 X190.681 Y195.923 E18.35441
G1 X191.15 Y195.871 E18.3701
G1 X192.14 Y195.81 E18.40309
G1 X192.96 Y195.8 E18.43037
G1 X224.416 Y195.802 E19.4766
G1 X225.054 Y195.811 E19.49782
G1 X225.813 Y195.84 E19.52308
G1 X226.404 Y195.879 E19.54278
G1 X227.26 Y195.982 E19.57146
G1 X227.8 Y196.07 E19.58966
G1 X228.348 Y196.172 E19.6082
G1 X229.093 Y196.347 E19.63365
G1 X231.046 Y196.884 E19.70102
G1 X233.547 Y197.499 E19.78668
G1 X236.021 Y198.033 E19.87086
G1 X238.521 Y198.5 E19.95545
G1 X241.033 Y198.895 E20.04002
G1 X243.525 Y199.217 E20.1236
G1 X246.08 Y199.472 E20.209
G1 X248.587 Y199.652 E20.2926
G1 X251.152 Y199.762 E20.37799
G1 X253.822 Y199.801 E20.4668
G1 X257.202 Y199.802 E20.57922
G1 X257.9 Y199.812 E20.60244
G1 X258.875 Y199.873 E20.63493
G1 X259.3 Y199.92 E20.64915
G1 X260.193 Y200.059 E20.67921
G1 X261.069 Y200.276 E20.70923
G1 X261.515 Y200.419 E20.72481
G1 X261.96 Y200.573 E20.74047
G1 X262.799 Y200.906 E20.77049
G1 X263.606 Y201.312 E20.80054
G1 X264.085 Y201.597 E20.81908
G1 X264.451 Y201.829 E20.83349
G1 X265.192 Y202.346 E20.86354
G1 X266.168 Y203.197 E20.90661
G1 X266.48 Y203.506 E20.92121
G1 X267.092 Y204.169 E20.95122
G1 X267.644 Y204.884 E20.98127
G1 X267.935 Y205.321 E20.99873
G1 X268.176 Y205.704 E21.01378
G1 X268.623 Y206.489 E21.04383
G1 X268.998 Y207.31 E21.07385
G1 X269.173 Y207.774 E21.09034
G1 X269.32 Y208.195 E21.10517
G1 X269.58 Y209.06 E21.13521
G1 X269.762 Y209.944 E21.16523
G1 X269.825 Y210.408 E21.18081
G1 X269.875 Y210.849 E21.19557
G1 X269.939 Y211.855 E21.22909
G1 X269.95 Y212.711 E21.25757
G1 X269.948 Y237.47 E22.08106
G1 X269.936 Y238.206 E22.10554
G1 X269.869 Y239.212 E22.13907
G1 X269.824 Y239.601 E22.1521
G1 X269.681 Y240.493 E22.18214
G1 X269.422 Y241.489 E22.21637
G1 X269.203 Y242.146 E22.23941
G1 X269.111 Y242.396 E22.24827
G1 X268.762 Y243.229 E22.27831
G1 X268.153 Y244.336 E22.32033
G1 X267.919 Y244.705 E22.33486
G1 X267.402 Y245.445 E22.36489
G1 X266.528 Y246.444 E22.40903
G1 X266.192 Y246.781 E22.42486
G1 X265.527 Y247.391 E22.45488
G1 X264.81 Y247.941 E22.48493
G1 X264.224 Y248.321 E22.50816
G1 X263.868 Y248.535 E22.52198
G1 X263.074 Y248.966 E22.55202
G1 X261.976 Y249.423 E22.59158
G1 X261.558 Y249.569 E22.60631
G1 X260.693 Y249.828 E22.63634
G1 X259.809 Y250.011 E22.66636
G1 X259.319 Y250.077 E22.68281
G1 X258.85 Y250.129 E22.6985
G1 X257.86 Y250.19 E22.73149
G1 X257.04 Y250.2 E22.75877
G1 X253.848 Y250.2 E22.86494
G1 X251.242 Y250.237 E22.95162
G1 X248.674 Y250.346 E23.03711
G1 X246.172 Y250.523 E23.12053
G1 X243.66 Y250.772 E23.20449
G1 X241.097 Y251.1 E23.29043
G1 X238.612 Y251.491 E23.3741
G1 X236.108 Y251.956 E23.45881
G1 X233.647 Y252.484 E23.54253
G1 X231.186 Y253.089 E23.62682
G1 X230.359 Y253.318 E23.65536
G1 X229.109 Y253.649 E23.69836
G1 X228.45 Y253.801 E23.72086
G1 X227.696 Y253.948 E23.74641
G1 X226.548 Y254.104 E23.78494
G1 X225.979 Y254.149 E23.80393
G1 X225.369 Y254.179 E23.82424
G1 X224.175 Y254.2 E23.86396
G1 X192.801 Y254.198 E24.90746
G1 X192.101 Y254.188 E24.93075
G1 X191.128 Y254.127 E24.96317
G1 X190.702 Y254.08 E24.97743
G1 X189.81 Y253.942 E25.00745
G1 X188.745 Y253.667 E25.04403
G1 X188.073 Y253.441 E25.06761
G1 X187.82 Y253.347 E25.07659
G1 X186.988 Y252.996 E25.10662
G1 X185.919 Y252.406 E25.14723
G1 X185.557 Y252.177 E25.16148
G1 X184.816 Y251.661 E25.19151
G1 X183.808 Y250.78 E25.23604
G1 X183.467 Y250.44 E25.25206
G1 X182.856 Y249.775 E25.28209
G1 X182.307 Y249.058 E25.31213
G1 X181.918 Y248.458 E25.33591
G1 X181.706 Y248.104 E25.34964
G1 X181.277 Y247.309 E25.37968
G1 X180.83 Y246.233 E25.41844
G1 X180.683 Y245.813 E25.43324
G1 X180.422 Y244.948 E25.46329
G1 X180.24 Y244.063 E25.49334
G1 X180.171 Y243.553 E25.51045
G1 X180.12 Y243.087 E25.52605
G1 X180.06 Y242.111 E25.55857
G1 X180.05 Y241.291 E25.58585
G1 X180.052 Y208.551 E26.67478
G1 X180.062 Y207.847 E26.6982
G1 X180.124 Y206.86 E26.73109
G1 X180.171 Y206.439 E26.74518
G1 X180.311 Y205.547 E26.77521
G1 X180.583 Y204.495 E26.81135
G1 X180.813 Y203.81 E26.83539
G1 X180.907 Y203.558 E26.84433
G1 X181.26 Y202.727 E26.87436
G1 X181.864 Y201.638 E26.91578
G1 X182.1 Y201.268 E26.93038
G1 X182.619 Y200.529 E26.96041
G1 X183.477 Y199.551 E27.00368
G1 X183.808 Y199.219 E27.01928
G1 F1500 E20.51928
;MESH:Mount.stl
G0 F6000 X195.127 Y210.873
;TYPE:WALL-OUTER
G1 F1500 E27.01928
G1 F1784.4 X195.324 Y210.616 E27.02652
G1 X195.445 Y210.322 E27.03363
G1 F1771.2 X195.487 Y209.998 E27.04099
G1 F1758.2 X195.444 Y209.676 E27.04837
G1 X195.323 Y209.383 E27.05556
G1 F1764.7 X195.127 Y209.127 E27.06285
G1 F1771.2 X194.866 Y208.926 E27.07028
G1 F1777.8 X194.572 Y208.805 E27.07742
G1 F1771.2 X194.25 Y208.763 E27.08473
G1 F1764.7 X193.928 Y208.805 E27.09208
G1 F1771.2 X193.633 Y208.927 E27.09927
G1 F1777.8 X193.373 Y209.127 E27.10664
G1 X193.177 Y209.383 E27.11387
G1 X193.056 Y209.676 E27.12099
G1 F1764.7 X193.013 Y210.002 E27.12843
G1 F1758.2 X193.055 Y210.322 E27.13575
G1 F1764.7 X193.176 Y210.616 E27.14294
G1 F1771.2 X193.373 Y210.873 E27.15024
G1 F1777.8 X193.633 Y211.073 E27.15761
G1 F1771.2 X193.928 Y211.195 E27.1648
G1 F1758.2 X194.25 Y211.237 E27.17217
G1 F1764.7 X194.572 Y211.195 E27.17951
G1 F1777.8 X194.866 Y211.074 E27.18665
G1 X195.127 Y210.873 E27.19405
G1 F1500 E20.69405
G0 F6000 X223.373 Y210.873
G1 F1500 E27.19405
G1 F1777.8 X223.633 Y211.073 E27.20141
G1 F1771.2 X223.928 Y211.195 E27.20861
G1 F1758.2 X224.25 Y211.237 E27.21598
G1 F1764.7 X224.572 Y211.195 E27.22332
G1 F1777.8 X224.866 Y211.074 E27.23046
G1 X225.127 Y210.873 E27.23785
G1 F1784.4 X225.324 Y210.616 E27.2451
G1 X225.445 Y210.322 E27.25221
G1 F1771.2 X225.487 Y209.998 E27.25957
G1 F1758.2 X225.444 Y209.676 E27.26695
G1 X225.323 Y209.383 E27.27414
G1 F1764.7 X225.127 Y209.127 E27.28143
G1 F1771.2 X224.866 Y208.926 E27.28886
